**kern	**silbe	**harmony	**phrase	**leadinstrument	**rhyme	**timestamp	**harte
*ICvox	*	*M4/4	*	*	*	*	*M4/4
*VRlead	*	*	*	*	*	*	*
*Hstimme	*	*	*	*	*	*	*
*D:	*	*D:	*	*	*	*	*D:
*M4/4	*	*	*	*	*	*	*
*clefF4	*	*	*	*	*	*	*
r;	.	1r;	.	r	.	0	N.C.
=1	=1	=1	=1	=1	=1	=1	=1
*>Letter>C	*>Letter>C	*>Letter>C	*>Letter>C	*>Letter>C	*>Letter>C	*>Letter>C	*>Letter>C
*>Label>Intro	*>Label>Intro	*>Label>Intro	*>Label>Intro	*>Label>Intro	*>Label>Intro	*>Label>Intro	*>Label>Intro
1r	.	1DM	newline	r	.	0.384	D:maj
=2	=2	=2	=2	=2	=2	=2	=2
1r	.	1DM	.	r	.	2.503	D:maj
=3	=3	=3	=3	=3	=3	=3	=3
1r	.	1DM	.	r	.	4.623	D:maj
=4	=4	=4	=4	=4	=4	=4	=4
1r	.	1DM	.	r	.	6.743	D:maj
=5	=5	=5	=5	=5	=5	=5	=5
1r	.	1DM	newline	r	.	8.862	D:maj
=6	=6	=6	=6	=6	=6	=6	=6
1r	.	1DM	.	r	.	10.961	D:maj
=7	=7	=7	=7	=7	=7	=7	=7
1r	.	1DM	.	r	.	13.06	D:maj
=8	=8	=8	=8	=8	=8	=8	=8
2r	.	1DM	.	r	.	15.158	D:maj
4r	.	.	.	.	.	.	.
8r	.	.	.	.	.	.	.
8c	It's	.	.	.	.	.	.
=9	=9	=9	=9	=9	=9	=9	=9
*>Letter>A	*>Letter>A	*>Letter>A	*>Letter>A	*>Letter>A	*>Letter>A	*>Letter>A	*>Letter>A
*>Label>Verse	*>Label>Verse	*>Label>Verse	*>Label>Verse	*>Label>Verse	*>Label>Verse	*>Label>Verse	*>Label>Verse
8d	get-	1DM	newline	r	.	17.257	D:maj
8d	-tin'	.	.	.	.	.	.
8c	near	.	.	.	.	.	.
4d	dawn.	.	.	.	.	.	.
4r	.	.	.	.	.	.	.
8r	.	.	.	.	.	.	.
=10	=10	=10	=10	=10	=10	=10	=10
2r	.	1DM	.	r	.	19.32	D:maj
4r	.	.	.	.	.	.	.
8r	.	.	.	.	.	.	.
8c	When	.	.	.	.	.	.
=11	=11	=11	=11	=11	=11	=11	=11
8d	lights	1DM	.	r	.	21.384	D:maj
8d	close	.	.	.	.	.	.
8c	their	.	.	.	.	.	.
4d	ti-	.	.	.	.	.	.
4A	-red	.	.	.	.	.	.
8G	eyes.	.	.	.	A	.	.
=12	=12	=12	=12	=12	=12	=12	=12
2F	_	1DM	.	r	.	23.447	D:maj
4r	.	.	.	.	.	.	.
8r	.	.	.	.	.	.	.
8c	I'll	.	.	.	.	.	.
=13	=13	=13	=13	=13	=13	=13	=13
8d	soon	1DM	newline	r	.	25.51	D:maj
8d	be	.	.	.	.	.	.
8c	with	.	.	.	.	.	.
4d	you	.	.	.	.	.	.
8A	my	.	.	.	.	.	.
8F	_	.	.	.	.	.	.
8G	love.	.	.	.	.	.	.
=14	=14	=14	=14	=14	=14	=14	=14
4F	_	1DM	.	r	.	27.578	D:maj
2r	.	.	.	.	.	.	.
4r	.	.	.	.	.	.	.
=15	=15	=15	=15	=15	=15	=15	=15
8d	give	1DM	.	r	.	29.645	D:maj
8d	you	.	.	.	.	.	.
8c	my	.	.	.	.	.	.
4d	dawn	.	.	.	.	.	.
8A	su-	.	.	.	.	.	.
8F	_	.	.	.	.	.	.
8G	-prise.	.	.	.	A	.	.
=16	=16	=16	=16	=16	=16	=16	=16
8F	_	1DM	.	r	.	31.712	D:maj
4.A	_	.	.	.	.	.	.
4r	.	.	.	.	.	.	.
8r	.	.	.	.	.	.	.
8f	I'll	.	.	.	.	.	.
=17	=17	=17	=17	=17	=17	=17	=17
8g	be	1GM	newline	r	.	33.78	G:maj
8g	with	.	.	.	.	.	.
8f	you	.	.	.	.	.	.
4g	dar-	.	.	.	.	.	.
4f	-lin'	.	.	.	.	.	.
8d-	soon.	.	.	.	.	.	.
=18	=18	=18	=18	=18	=18	=18	=18
4c#	_	1GM	.	r	.	35.849	G:maj
2r	.	.	.	.	.	.	.
8r	.	.	.	.	.	.	.
8f	I'll	.	.	.	.	.	.
=19	=19	=19	=19	=19	=19	=19	=19
8g	be	1GM	.	r	.	37.918	G:maj
8a	with	.	.	.	.	.	.
8f	you	.	.	.	.	.	.
4g	when	.	.	.	.	.	.
4f	the	.	.	.	.	.	.
[8a	stars	.	.	.	.	.	.
=20	=20	=20	=20	=20	=20	=20	=20
8a]	_	1GM	.	r	.	39.988	G:maj
8g	start	.	.	.	.	.	.
8f	_	.	.	.	.	.	.
4g	fal-	.	.	.	.	.	.
4.f	-lin'.	.	.	.	.	.	.
=21	=21	=21	=21	=21	=21	=21	=21
1r	.	1DM	newline	r	.	42.057	D:maj
=22	=22	=22	=22	=22	=22	=22	=22
1r	.	1DM	.	r	.	44.137	D:maj
=23	=23	=23	=23	=23	=23	=23	=23
1r	.	1DM	.	r	.	46.217	D:maj
=24	=24	=24	=24	=24	=24	=24	=24
1r	.	1DM	.	r	.	48.297	D:maj
=25	=25	=25	=25	=25	=25	=25	=25
*>Letter>B	*>Letter>B	*>Letter>B	*>Letter>B	*>Letter>B	*>Letter>B	*>Letter>B	*>Letter>B
*>Label>Chorus	*>Label>Chorus	*>Label>Chorus	*>Label>Chorus	*>Label>Chorus	*>Label>Chorus	*>Label>Chorus	*>Label>Chorus
4r	.	1AM	newline	r	.	50.376	A:maj
8r	.	.	.	.	.	.	.
4G	I've	.	.	.	.	.	.
4A	been	.	.	.	.	.	.
[8c	wai-	.	.	.	.	.	.
=26	=26	=26	=26	=26	=26	=26	=26
8c]	_	2CM	.	r	.	52.477	C:maj
4A	-ting	.	.	.	.	.	.
4G	so	.	.	.	.	.	.
.	.	2GM	.	r	.	53.528	G:maj
4.A	long	.	.	.	.	.	.
=27	=27	=27	=27	=27	=27	=27	=27
4r	.	1AM	.	r	.	54.578	A:maj
8r	.	.	.	.	.	.	.
4G	to	.	.	.	.	.	.
4A	be	.	.	.	.	.	.
[8c	where	.	.	.	.	.	.
=28	=28	=28	=28	=28	=28	=28	=28
8c]	_	2CM	.	r	.	56.679	C:maj
4A	I'm	.	.	.	.	.	.
4G	go-	.	.	.	.	.	.
.	.	2GM	.	r	.	57.729	G:maj
8A	-in'.	.	.	.	.	.	.
4r	.	.	.	.	.	.	.
=29	=29	=29	=29	=29	=29	=29	=29
4r	.	1AM	newline	r	.	58.78	A:maj
8r	.	.	.	.	.	.	.
4A	In	.	.	.	.	.	.
4c#	the	.	.	.	.	.	.
[8e	sun-	.	.	.	.	.	.
=30	=30	=30	=30	=30	=30	=30	=30
8e]	_	2CM	.	r	.	60.852	C:maj
4c#	-shine	.	.	.	.	.	.
4A	of	.	.	.	.	.	.
.	.	2GM	.	r	.	61.888	G:maj
8c#	your	.	.	.	.	.	.
4r	.	.	.	.	.	.	.
=31	=31	=31	=31	=31	=31	=31	=31
4e	love.	1AM	.	r	.	62.924	A:maj
16d	_	.	.	.	.	.	.
16e	_	.	.	.	.	.	.
8d	_	.	.	.	.	.	.
4c#	_	.	.	.	.	.	.
16B	_	.	.	.	.	.	.
16c#	_	.	.	.	.	.	.
8B	_	.	.	.	.	.	.
=32	=32	=32	=32	=32	=32	=32	=32
2A	_	1AM	.	r	.	64.997	A:maj
2r	.	.	.	.	.	.	.
=33	=33	=33	=33	=33	=33	=33	=33
1r	.	1DM	newline	r	.	67.069	D:maj
=34	=34	=34	=34	=34	=34	=34	=34
2r	.	1DM	.	r	.	69.172	D:maj
4r	.	.	.	.	.	.	.
8r	.	.	.	.	.	.	.
8c	I'm	.	.	.	.	.	.
=35	=35	=35	=35	=35	=35	=35	=35
*>Letter>A	*>Letter>A	*>Letter>A	*>Letter>A	*>Letter>A	*>Letter>A	*>Letter>A	*>Letter>A
*>Label>Verse	*>Label>Verse	*>Label>Verse	*>Label>Verse	*>Label>Verse	*>Label>Verse	*>Label>Verse	*>Label>Verse
8d	with	1DM	newline	r	.	71.275	D:maj
8d	you	.	.	.	.	.	.
8c	my	.	.	.	.	.	.
4d	love.	.	.	.	.	.	.
4.A	_	.	.	.	.	.	.
=36	=36	=36	=36	=36	=36	=36	=36
2r	.	1DM	.	r	.	73.361	D:maj
4r	.	.	.	.	.	.	.
8r	.	.	.	.	.	.	.
8c	The	.	.	.	.	.	.
=37	=37	=37	=37	=37	=37	=37	=37
8d	light	1DM	.	r	.	75.446	D:maj
8d	shi-	.	.	.	.	.	.
8c	-ning	.	.	.	.	.	.
8d	through	.	.	.	.	.	.
8r	.	.	.	.	.	.	.
4A	on	.	.	.	.	.	.
8F#	_	.	.	.	.	.	.
=38	=38	=38	=38	=38	=38	=38	=38
16G	you.	1DM	.	r	B	77.531	D:maj
4..F#	_	.	.	.	.	.	.
8r	.	.	.	.	.	.	.
8.A	Yes	.	.	.	.	.	.
8.c	I'm	.	.	.	.	.	.
=39	=39	=39	=39	=39	=39	=39	=39
8d	with	1DM	newline	r	.	79.616	D:maj
8d	you	.	.	.	.	.	.
8c	my	.	.	.	.	.	.
8d	love.	.	.	.	C	.	.
8c	_	.	.	.	.	.	.
8d	_	.	.	.	.	.	.
4r	.	.	.	.	.	.	.
=40	=40	=40	=40	=40	=40	=40	=40
2r	.	1DM	.	r	.	81.689	D:maj
4r	.	.	.	.	.	.	.
8A	It's	.	.	.	.	.	.
8c	the	.	.	.	.	.	.
=41	=41	=41	=41	=41	=41	=41	=41
8d	mor-	1DM	.	r	.	83.761	D:maj
8d	-ning	.	.	.	.	.	.
8c	of	.	.	.	.	.	.
4d	just	.	.	.	.	.	.
4.f#	we	.	.	.	.	.	.
=42	=42	=42	=42	=42	=42	=42	=42
16d	two.	1DM	.	r	B	85.834	D:maj
16f	_	.	.	.	.	.	.
8d	_	.	.	.	.	.	.
2r	.	.	.	.	.	.	.
8r	.	.	.	.	.	.	.
8f	I'll	.	.	.	.	.	.
=43	=43	=43	=43	=43	=43	=43	=43
8g	stay	1GM	newline	r	.	87.906	G:maj
8g	with	.	.	.	.	.	.
8f	you	.	.	.	.	.	.
4g	dar-	.	.	.	.	.	.
4f	-lin'	.	.	.	.	.	.
16a	now.	.	.	.	.	.	.
[16d	_	.	.	.	.	.	.
=44	=44	=44	=44	=44	=44	=44	=44
4d]	_	1GM	.	r	.	89.972	G:maj
2r	.	.	.	.	.	.	.
8r	.	.	.	.	.	.	.
8f	I'll	.	.	.	.	.	.
=45	=45	=45	=45	=45	=45	=45	=45
8g	stay	1GM	.	r	.	92.039	G:maj
8g	with	.	.	.	.	.	.
8f	you	.	.	.	.	.	.
8g	till	.	.	.	.	.	.
8r	.	.	.	.	.	.	.
8f	my	.	.	.	.	.	.
8r	.	.	.	.	.	.	.
8a	seas	.	.	.	.	.	.
=46	=46	=46	=46	=46	=46	=46	=46
8g	_	1GM	.	r	.	94.105	G:maj
8g	are	.	.	.	.	.	.
8f	_	.	.	.	.	.	.
8g	dried	.	.	.	.	.	.
8f	_	.	.	.	.	.	.
4g	up.	.	.	.	C	.	.
[8f#	_	.	.	.	.	.	.
=47	=47	=47	=47	=47	=47	=47	=47
2f#]	_	1DM	newline	r	.	96.171	D:maj
2r	.	.	.	.	.	.	.
=48	=48	=48	=48	=48	=48	=48	=48
1r	.	1DM	.	r	.	98.273	D:maj
=49	=49	=49	=49	=49	=49	=49	=49
1r	.	1DM	.	r	.	100.376	D:maj
=50	=50	=50	=50	=50	=50	=50	=50
1r	.	1DM	.	r	.	102.478	D:maj
=51	=51	=51	=51	=51	=51	=51	=51
*>Letter>B	*>Letter>B	*>Letter>B	*>Letter>B	*>Letter>B	*>Letter>B	*>Letter>B	*>Letter>B
*>Label>Chorus	*>Label>Chorus	*>Label>Chorus	*>Label>Chorus	*>Label>Chorus	*>Label>Chorus	*>Label>Chorus	*>Label>Chorus
4r	.	1AM	newline	r	.	104.58	A:maj
8r	.	.	.	.	.	.	.
4G	I've	.	.	.	.	.	.
4A	been	.	.	.	.	.	.
[8c	wai-	.	.	.	.	.	.
=52	=52	=52	=52	=52	=52	=52	=52
8c]	_	2CM	.	r	.	106.665	C:maj
4A	-ting	.	.	.	.	.	.
4G	so	.	.	.	.	.	.
.	.	2GM	.	r	.	107.708	G:maj
4.A	long	.	.	.	.	.	.
=53	=53	=53	=53	=53	=53	=53	=53
4r	.	1AM	.	r	.	108.751	A:maj
8r	.	.	.	.	.	.	.
4G	to	.	.	.	.	.	.
4A	be	.	.	.	.	.	.
[8c	where	.	.	.	.	.	.
=54	=54	=54	=54	=54	=54	=54	=54
8c]	_	2CM	.	r	.	110.837	C:maj
4A	I'm	.	.	.	.	.	.
4G	go-	.	.	.	.	.	.
.	.	2GM	.	r	.	111.88	G:maj
4A	-in'.	.	.	.	.	.	.
8r	.	.	.	.	.	.	.
=55	=55	=55	=55	=55	=55	=55	=55
4r	.	1AM	newline	r	.	112.922	A:maj
8r	.	.	.	.	.	.	.
4A	In	.	.	.	.	.	.
4c#	the	.	.	.	.	.	.
[8e	sun-	.	.	.	.	.	.
=56	=56	=56	=56	=56	=56	=56	=56
8e]	_	2CM	.	r	.	114.995	C:maj
4c#	-shine	.	.	.	.	.	.
4A	of	.	.	.	.	.	.
.	.	2GM	.	r	.	116.031	G:maj
8c#	your	.	.	.	.	.	.
4r	.	.	.	.	.	.	.
=57	=57	=57	=57	=57	=57	=57	=57
4e	love.	1AM	.	r	.	117.067	A:maj
16d	_	.	.	.	.	.	.
16e	_	.	.	.	.	.	.
8d	_	.	.	.	.	.	.
4c#	_	.	.	.	.	.	.
16B	_	.	.	.	.	.	.
16c#	_	.	.	.	.	.	.
8B	_	.	.	.	.	.	.
=58	=58	=58	=58	=58	=58	=58	=58
2A	_	1AM	.	r	.	119.14	A:maj
2r	.	.	.	.	.	.	.
=59	=59	=59	=59	=59	=59	=59	=59
*>Letter>D	*>Letter>D	*>Letter>D	*>Letter>D	*>Letter>D	*>Letter>D	*>Letter>D	*>Letter>D
*>Label>Instrumental	*>Label>Instrumental	*>Label>Instrumental	*>Label>Instrumental	*>Label>Instrumental	*>Label>Instrumental	*>Label>Instrumental	*>Label>Instrumental
1r	.	1DM	newline	r	.	121.212	D:maj
=60	=60	=60	=60	=60	=60	=60	=60
1r	.	1DM	.	r	.	123.294	D:maj
=61	=61	=61	=61	=61	=61	=61	=61
1r	.	1DM	.	r	.	125.376	D:maj
=62	=62	=62	=62	=62	=62	=62	=62
1r	.	1DM	.	r	.	127.457	D:maj
=63	=63	=63	=63	=63	=63	=63	=63
1r	.	1DM	newline	r	.	129.539	D:maj
=64	=64	=64	=64	=64	=64	=64	=64
1r	.	1DM	.	r	.	131.596	D:maj
=65	=65	=65	=65	=65	=65	=65	=65
1r	.	1DM	.	r	.	133.654	D:maj
=66	=66	=66	=66	=66	=66	=66	=66
1r	.	1DM	.	r	.	135.712	D:maj
=67	=67	=67	=67	=67	=67	=67	=67
1r	.	1GM	newline	r	.	137.769	G:maj
=68	=68	=68	=68	=68	=68	=68	=68
1r	.	1GM	.	r	.	139.823	G:maj
=69	=69	=69	=69	=69	=69	=69	=69
1r	.	1GM	.	r	.	141.877	G:maj
=70	=70	=70	=70	=70	=70	=70	=70
1r	.	1GM	.	r	.	143.931	G:maj
=71	=71	=71	=71	=71	=71	=71	=71
1r	.	1DM	newline	r	.	145.985	D:maj
=72	=72	=72	=72	=72	=72	=72	=72
1r	.	1DM	.	r	.	148.062	D:maj
=73	=73	=73	=73	=73	=73	=73	=73
1r	.	1DM	.	r	.	150.14	D:maj
=74	=74	=74	=74	=74	=74	=74	=74
1r	.	1DM	.	r	.	152.217	D:maj
=75	=75	=75	=75	=75	=75	=75	=75
1r	.	1AM	newline	r	.	154.294	A:maj
=76	=76	=76	=76	=76	=76	=76	=76
1r	.	2CM	.	r	.	156.371	C:maj
.	.	2GM	.	r	.	157.41	G:maj
=77	=77	=77	=77	=77	=77	=77	=77
1r	.	1AM	.	r	.	158.448	A:maj
=78	=78	=78	=78	=78	=78	=78	=78
1r	.	2CM	.	r	.	160.525	C:maj
.	.	2GM	.	r	.	161.564	G:maj
=79	=79	=79	=79	=79	=79	=79	=79
1r	.	1AM	newline	r	.	162.603	A:maj
=80	=80	=80	=80	=80	=80	=80	=80
1r	.	2CM	.	r	.	164.656	C:maj
.	.	2GM	.	r	.	165.682	G:maj
=81	=81	=81	=81	=81	=81	=81	=81
1r	.	1AM	.	r	.	166.709	A:maj
=82	=82	=82	=82	=82	=82	=82	=82
1r	.	1AM	.	r	.	168.762	A:maj
=83	=83	=83	=83	=83	=83	=83	=83
1r	.	1DM	newline	r	.	170.815	D:maj
=84	=84	=84	=84	=84	=84	=84	=84
1r	.	1DM	.	r	.	172.917	D:maj
=85	=85	=85	=85	=85	=85	=85	=85
1r	.	1DM	.	r	.	175.018	D:maj
=86	=86	=86	=86	=86	=86	=86	=86
2r	.	1DM	.	r	.	177.119	D:maj
4r	.	.	.	.	.	.	.
8r	.	.	.	.	.	.	.
8c	I'm	.	.	.	.	.	.
=87	=87	=87	=87	=87	=87	=87	=87
*>Letter>A	*>Letter>A	*>Letter>A	*>Letter>A	*>Letter>A	*>Letter>A	*>Letter>A	*>Letter>A
*>Label>Verse	*>Label>Verse	*>Label>Verse	*>Label>Verse	*>Label>Verse	*>Label>Verse	*>Label>Verse	*>Label>Verse
8d	with	1DM	newline	r	.	179.22	D:maj
8d	you	.	.	.	.	.	.
8c	my	.	.	.	.	.	.
8d	love.	.	.	.	.	.	.
4A	_	.	.	.	.	.	.
4r	.	.	.	.	.	.	.
=88	=88	=88	=88	=88	=88	=88	=88
2r	.	1DM	.	r	.	181.302	D:maj
4r	.	.	.	.	.	.	.
8r	.	.	.	.	.	.	.
8c	The	.	.	.	.	.	.
=89	=89	=89	=89	=89	=89	=89	=89
8d	light	1DM	.	r	.	183.384	D:maj
8a	shi-	.	.	.	.	.	.
8f#	-ning	.	.	.	.	.	.
8g	through	.	.	.	.	.	.
8f#	_	.	.	.	.	.	.
8g	on	.	.	.	.	.	.
8a	_	.	.	.	.	.	.
8g	you.	.	.	.	B	.	.
=90	=90	=90	=90	=90	=90	=90	=90
4.f#	_	1DM	.	r	.	185.465	D:maj
8d	_	.	.	.	.	.	.
4r	.	.	.	.	.	.	.
8A	Yes	.	.	.	.	.	.
8c	I'm	.	.	.	.	.	.
=91	=91	=91	=91	=91	=91	=91	=91
8d	with	1DM	newline	r	.	187.547	D:maj
8d	you	.	.	.	.	.	.
8c	my	.	.	.	.	.	.
8d	love.	.	.	.	C	.	.
8c	_	.	.	.	.	.	.
8d	_	.	.	.	.	.	.
4r	.	.	.	.	.	.	.
=92	=92	=92	=92	=92	=92	=92	=92
2r	.	1DM	.	r	.	189.621	D:maj
4r	.	.	.	.	.	.	.
8A	It's	.	.	.	.	.	.
8c	the	.	.	.	.	.	.
=93	=93	=93	=93	=93	=93	=93	=93
8d	mor-	1DM	.	r	.	191.696	D:maj
8d	-ning	.	.	.	.	.	.
8c	of	.	.	.	.	.	.
4d	just	.	.	.	.	.	.
4f#	we	.	.	.	.	.	.
16d	two.	.	.	.	B	.	.
16e	_	.	.	.	.	.	.
=94	=94	=94	=94	=94	=94	=94	=94
4c	_	1DM	.	r	.	193.77	D:maj
2r	.	.	.	.	.	.	.
8r	.	.	.	.	.	.	.
8f	I'll	.	.	.	.	.	.
=95	=95	=95	=95	=95	=95	=95	=95
8g	stay	1GM	newline	r	.	195.845	G:maj
8g	with	.	.	.	.	.	.
8f	you	.	.	.	.	.	.
4g	dar-	.	.	.	.	.	.
4f	-ling	.	.	.	.	.	.
[8d	now.	.	.	.	.	.	.
=96	=96	=96	=96	=96	=96	=96	=96
8d]	_	1GM	.	r	.	197.912	G:maj
2r	.	.	.	.	.	.	.
4r	.	.	.	.	.	.	.
8f	I'll	.	.	.	.	.	.
=97	=97	=97	=97	=97	=97	=97	=97
8g	stay	1GM	.	r	.	199.978	G:maj
8g	with	.	.	.	.	.	.
8f	you	.	.	.	.	.	.
8g	till	.	.	.	.	.	.
8r	.	.	.	.	.	.	.
8f	my	.	.	.	.	.	.
8r	.	.	.	.	.	.	.
[8a	seas	.	.	.	.	.	.
=98	=98	=98	=98	=98	=98	=98	=98
8a]	_	1GM	.	r	.	202.045	G:maj
8g	are	.	.	.	.	.	.
8f	_	.	.	.	.	.	.
8g	dried	.	.	.	.	.	.
8f	_	.	.	.	.	.	.
4g	up.	.	.	.	C	.	.
8f	_	.	.	.	.	.	.
=99	=99	=99	=99	=99	=99	=99	=99
2f#	_	1DM	newline	r	.	204.112	D:maj
2r	.	.	.	.	.	.	.
=100	=100	=100	=100	=100	=100	=100	=100
1r	.	1DM	.	r	.	206.199	D:maj
=101	=101	=101	=101	=101	=101	=101	=101
1r	.	1DM	.	r	.	208.287	D:maj
=102	=102	=102	=102	=102	=102	=102	=102
1r	.	1DM	.	r	.	210.374	D:maj
=103	=103	=103	=103	=103	=103	=103	=103
*>Letter>B	*>Letter>B	*>Letter>B	*>Letter>B	*>Letter>B	*>Letter>B	*>Letter>B	*>Letter>B
*>Label>Chorus	*>Label>Chorus	*>Label>Chorus	*>Label>Chorus	*>Label>Chorus	*>Label>Chorus	*>Label>Chorus	*>Label>Chorus
4r	.	1AM	newline	r	.	212.461	A:maj
8r	.	.	.	.	.	.	.
4G	I've	.	.	.	.	.	.
4A	been	.	.	.	.	.	.
[8c	wai-	.	.	.	.	.	.
=104	=104	=104	=104	=104	=104	=104	=104
8c]	_	2CM	.	r	.	214.556	C:maj
4A	-ting	.	.	.	.	.	.
4G	so	.	.	.	.	.	.
.	.	2GM	.	r	.	215.604	G:maj
4.A	long.	.	.	.	.	.	.
=105	=105	=105	=105	=105	=105	=105	=105
4r	.	1AM	.	r	.	216.651	A:maj
8r	.	.	.	.	.	.	.
4G	I've	.	.	.	.	.	.
4A	been	.	.	.	.	.	.
[8c	wai-	.	.	.	.	.	.
=106	=106	=106	=106	=106	=106	=106	=106
8c]	_	2CM	.	r	.	218.746	C:maj
8d	-ting	.	.	.	.	.	.
8c	_	.	.	.	.	.	.
8e	so	.	.	.	.	.	.
8c	_	2GM	.	r	.	219.793	G:maj
8d	long.	.	.	.	.	.	.
4c	_	.	.	.	.	.	.
=107	=107	=107	=107	=107	=107	=107	=107
4r	.	1AM	newline	r	.	220.841	A:maj
8r	.	.	.	.	.	.	.
4G	I've	.	.	.	.	.	.
4A	been	.	.	.	.	.	.
[8c	wai-	.	.	.	.	.	.
=108	=108	=108	=108	=108	=108	=108	=108
8c]	_	2CM	.	r	.	222.916	C:maj
4A	-ting	.	.	.	.	.	.
4G	so	.	.	.	.	.	.
.	.	2GM	.	r	.	223.954	G:maj
4A	long	.	.	.	.	.	.
8r	.	.	.	.	.	.	.
=109	=109	=109	=109	=109	=109	=109	=109
4r	.	1AM	.	r	.	224.992	A:maj
8r	.	.	.	.	.	.	.
4G	to	.	.	.	.	.	.
4A	be	.	.	.	.	.	.
[8c	where	.	.	.	.	.	.
=110	=110	=110	=110	=110	=110	=110	=110
8c]	_	2CM	.	r	.	227.067	C:maj
4A	I'm	.	.	.	.	.	.
4G	go-	.	.	.	.	.	.
.	.	2GM	.	r	.	228.105	G:maj
8A	-in'.	.	.	.	.	.	.
4r	.	.	.	.	.	.	.
=111	=111	=111	=111	=111	=111	=111	=111
4r	.	1AM	newline	r	.	229.143	A:maj
8r	.	.	.	.	.	.	.
4G	In	.	.	.	.	.	.
4A	the	.	.	.	.	.	.
[8c	sun-	.	.	.	.	.	.
=112	=112	=112	=112	=112	=112	=112	=112
8c]	_	2CM	.	r	.	230.789	C:maj
4A	-shine	.	.	.	.	.	.
4G	of	.	.	.	.	.	.
.	.	2GM	.	r	.	231.612	G:maj
8A	your	.	.	.	.	.	.
4r	.	.	.	.	.	.	.
=113	=113	=113	=113	=113	=113	=113	=113
4e	love.	1AM	.	r	.	232.435	A:maj
16d	_	.	.	.	.	.	.
16e	_	.	.	.	.	.	.
8d	_	.	.	.	.	.	.
4c#	_	.	.	.	.	.	.
16B	_	.	.	.	.	.	.
16c#	_	.	.	.	.	.	.
8B	_	.	.	.	.	.	.
=114	=114	=114	=114	=114	=114	=114	=114
[1A	_	1AM	.	r	.	234.081	A:maj
=115	=115	=115	=115	=115	=115	=115	=115
2A]	_	1AM	.	r	.	235.727	A:maj
2r	.	.	.	.	.	.	.
=116	=116	=116	=116	=116	=116	=116	=116
1r	.	1AM	.	r	.	237.373	A:maj
=117	=117	=117	=117	=117	=117	=117	=117
1r	.	1AM	.	r	.	239.02	A:maj
=118	=118	=118	=118	=118	=118	=118	=118
1r	.	1AM	.	r	.	240.666	A:maj
=119	=119	=119	=119	=119	=119	=119	=119
1r	.	1AM	.	r	.	242.312	A:maj
=120	=120	=120	=120	=120	=120	=120	=120
1r	.	1AM	.	r	.	243.958	A:maj
=121	=121	=121	=121	=121	=121	=121	=121
*>Letter>E	*>Letter>E	*>Letter>E	*>Letter>E	*>Letter>E	*>Letter>E	*>Letter>E	*>Letter>E
*>Label>Fadeout	*>Label>Fadeout	*>Label>Fadeout	*>Label>Fadeout	*>Label>Fadeout	*>Label>Fadeout	*>Label>Fadeout	*>Label>Fadeout
1r	.	1AM	newline	r	.	245.604	A:maj
r;	.	1r;	.	r	.	250.119	N.C.
r;	.	1r;	.	r	.	253.237	N.C.
*-	*-	*-	*-	*-	*-	*-	*-
!!!BillboardChartDate: 1968/03/30
!!!BillboardPeak: 5
!!!BillboardWeeksOnChart: 26
!!!COC: Cream
!!!ENC: Nathaniel Condit-Schultz
!!!EST: Awating manual error checking and editing.
!!!OTL: Sunshine Of Your Love
!!!RDF**chordsym: original McGill chord annotation + (implied pitch class set, with bass pitch in first position)
!!!RDF**harmony: **recip + pitch class of root + harmonic quality
!!!RDF**leadinstrument: original McGill primary instrumentation annotation
!!!RDF**phrase: newline = linebreak in original McGill transcription
!!!RDF**timestamp: McGill audio timestamp in seconds
!!!RDT: 2017/01/12/
!!!SampleActualRank: 60
!!!SampleID#: 0114
!!!SampleTargetRank: 60
